priv/static/svgs/country_flags/NC.svg

<?xml version="1.0" encoding="UTF-8"?>
<svg id="item" width="21px" height="15px" viewBox="0 0 21 15" version="1.1" xmlns="http://www.w3.org/2000/svg" xmlns:xlink="http://www.w3.org/1999/xlink">
    <defs>
        <linearGradient x1="50%" y1="0%" x2="50%" y2="100%" id="linearGradient-1">
            <stop stop-color="#FFFFFF" offset="0%"></stop>
            <stop stop-color="#F0F0F0" offset="100%"></stop>
        </linearGradient>
        <linearGradient x1="50%" y1="0%" x2="50%" y2="100%" id="linearGradient-2">
            <stop stop-color="#094CC7" offset="0%"></stop>
            <stop stop-color="#003CAB" offset="100%"></stop>
        </linearGradient>
        <linearGradient x1="50%" y1="0%" x2="50%" y2="100%" id="linearGradient-3">
            <stop stop-color="#2AAD55" offset="0%"></stop>
            <stop stop-color="#219447" offset="100%"></stop>
        </linearGradient>
        <linearGradient x1="50%" y1="0%" x2="50%" y2="100%" id="linearGradient-4">
            <stop stop-color="#F65D55" offset="0%"></stop>
            <stop stop-color="#E9443C" offset="100%"></stop>
        </linearGradient>
        <linearGradient x1="50%" y1="0%" x2="50%" y2="100%" id="linearGradient-5">
            <stop stop-color="#FAE749" offset="0%"></stop>
            <stop stop-color="#FBE533" offset="100%"></stop>
        </linearGradient>
        <linearGradient x1="50%" y1="0%" x2="50%" y2="100%" id="linearGradient-6">
            <stop stop-color="#262626" offset="0%"></stop>
            <stop stop-color="#0D0D0D" offset="100%"></stop>
        </linearGradient>
    </defs>
    <g id="Symbols" stroke="none" stroke-width="1" fill="none" fill-rule="evenodd">
        <g id="NC">
            <rect id="FlagBackground" fill="url(#linearGradient-1)" x="0" y="0" width="21" height="15"></rect>
            <rect id="Rectangle-2" fill="url(#linearGradient-2)" x="0" y="0" width="21" height="5"></rect>
            <rect id="Rectangle-2" fill="url(#linearGradient-3)" x="0" y="10" width="21" height="5"></rect>
            <rect id="Rectangle-2" fill="url(#linearGradient-4)" x="0" y="5" width="21" height="5"></rect>
            <circle id="Oval-95" fill="url(#linearGradient-5)" cx="10.5" cy="7.5" r="3.5"></circle>
            <path d="M10.0917899,6.21120062 C10.0339787,6.29276685 10,6.39241536 10,6.5 C10,6.77614237 10.2238576,7 10.5,7 C10.7761424,7 11,6.77614237 11,6.5 C11,6.26021849 10.8312137,6.05985912 10.6059713,6.01125212 C10.6538139,5.98687284 10.7019029,5.9607816 10.75,5.9330127 C11.3478658,5.58783473 11.7206029,5.11414631 11.5825318,4.875 C11.4444606,4.63585369 10.8478658,4.72180933 10.25,5.0669873 C9.65213422,5.41216527 9.27939706,5.88585369 9.41746825,6.125 C9.50287427,6.27292757 9.7637219,6.29646371 10.0917899,6.21120062 L10.0917899,6.21120062 Z M10.5,10.5 C9.67157288,10.5 9.5,9.77614237 9.5,9.5 C9.5,9.22385763 9.67157288,9 10.5,9 C11.3284271,9 11.5,9.22385763 11.5,9.5 C11.5,9.77614237 11.3284271,10.5 10.5,10.5 Z M10.5,9 C10.2238576,9 10,8.77614237 10,8.5 C10,8.22385763 10.2238576,8 10.5,8 C10.7761424,8 11,8.22385763 11,8.5 C11,8.77614237 10.7761424,9 10.5,9 Z M10.5,8 C10.2238576,8 10,7.77614237 10,7.5 C10,7.22385763 10.2238576,7 10.5,7 C10.7761424,7 11,7.22385763 11,7.5 C11,7.77614237 10.7761424,8 10.5,8 Z" id="Combined-Shape" fill="url(#linearGradient-6)"></path>
        </g>
    </g>
</svg>

<svg width="21" height="15" viewBox="0 0 21 15" xmlns="http://www.w3.org/2000/svg"><defs><linearGradient x1="50%" y1="0%" x2="50%" y2="100%" id="a"><stop stop-color="#FFF" offset="0%"/><stop stop-color="#F0F0F0" offset="100%"/></linearGradient><linearGradient x1="50%" y1="0%" x2="50%" y2="100%" id="b"><stop stop-color="#094CC7" offset="0%"/><stop stop-color="#003CAB" offset="100%"/></linearGradient><linearGradient x1="50%" y1="0%" x2="50%" y2="100%" id="c"><stop stop-color="#2AAD55" offset="0%"/><stop stop-color="#219447" offset="100%"/></linearGradient><linearGradient x1="50%" y1="0%" x2="50%" y2="100%" id="d"><stop stop-color="#F65D55" offset="0%"/><stop stop-color="#E9443C" offset="100%"/></linearGradient><linearGradient x1="50%" y1="0%" x2="50%" y2="100%" id="e"><stop stop-color="#FAE749" offset="0%"/><stop stop-color="#FBE533" offset="100%"/></linearGradient><linearGradient x1="50%" y1="0%" x2="50%" y2="100%" id="f"><stop stop-color="#262626" offset="0%"/><stop stop-color="#0D0D0D" offset="100%"/></linearGradient></defs><g fill="none" fill-rule="evenodd"><path fill="url(#a)" d="M0 0h21v15H0z"/><path fill="url(#b)" d="M0 0h21v5H0z"/><path fill="url(#c)" d="M0 10h21v5H0z"/><path fill="url(#d)" d="M0 5h21v5H0z"/><circle fill="url(#e)" cx="10.5" cy="7.5" r="3.5"/><path d="M10.092 6.211a.5.5 0 1 0 .514-.2c.048-.024.096-.05.144-.078.598-.345.97-.819.833-1.058-.139-.24-.735-.153-1.333.192s-.97.819-.833 1.058c.086.148.347.171.675.086ZM10.5 10.5c-.828 0-1-.724-1-1s.172-.5 1-.5c.828 0 1 .224 1 .5s-.172 1-1 1Zm0-1.5a.5.5 0 1 1 0-1 .5.5 0 0 1 0 1Zm0-1a.5.5 0 1 1 0-1 .5.5 0 0 1 0 1Z" fill="url(#f)"/></g></svg>
